!!!OTL: ICH SOLL UND MUSS EIN BULEN HABEN
!!!ARE: Europa, Mitteleuropa, Deutschland
!!!SCT: E0859
!!!YEM: Copyright 1995, estate of Helmut Schaffrath.
**kern
*ICvox
*Ivox
*M4/4
*k[b-]
*F:
=1
{2cc
4cc
4cc
=2
4cc
4cc
4b-
4cc
=3
2a
2f}
=4
{4.a
8b-
4cc
[4dd
=5
4dd]
2cc
4b-
=6
1cc}
=7
{2cc
4cc
4cc
=8
4cc
4cc
4b-
4cc
=9
2a
2f}
=10
{4a
8b-
8cc
4dd
[4cc
=11
4cc]
8b-
8a
4g
4g
=12
1f}
==
!!!AGN: Hochzeits -, Ehestands - Lied
!!!ONB: ESAC (Essen Associative Code) Database: ERK2
!!!AMT: simple quadruple
!!!AIN: vox
!!!EED: Helmut Schaffrath
!!!EEV: 1.0
*-
